X:738
T:Terpsichore
S:Colin Hume's website,  colinhume.com  - chords can also be printed below the stave.
Q:1/2=108
C:Michael Praetorius
H:For the dance by Charles Bolton
M:4/4
L:1/8
K:G
P:A
|: Bc | "G"d2d2 "D7"d3c | "G"B2G2G2cd | "C"e2c2c2Bc | "G"d2B2B2G2 | "Am"A2G2 "D7"A2GA | "G"B2G2G2 :|
P:B
|: FG | "D"A2A2A3G | "D"F2D4A2 | "D7"F2D4d2 | "G"B2G4cd | "C"e2c2cd e2 | "G"d2B4FG |
"D"A2A2ABAG | "D"F2D4A2 | "D7"F2D4d2 | "G"B2G4cB | "Am"A2G2 "D7"F3G | "G"G6 :|

